!!!!SEGMENT: pl-stab--24b--002_nowakiewicz-kazimierz--hej-bracia-czy-spicie.krn
!!!cenid: 18xx:3448
!!!COM: Nowakiewicz, Kazimierz
!!!COM-rismID: pe30020309
!!!CDT: <1800->1824
!!!CNT: Polish
!!!OTL: Hej bracia czy śpicie
!!!PDT:
!!!AGN:
!!!SMS-siglum: PL-STAb
!!!SMS-shelfmark: 24b
!!!SMS-shelfwork: 002 W
!!!SMS-variant:
!!!SMS-altvar:
!!!NIFC-rismSourceID: 301050703
!!!NIFC-islandoraID: pl-stab:3601
!!!URL-pdf-islandora: https://repozytorium.nifc.pl/islandora/object/pl-stab%3A3601/datastream/PDF/view
!!!URL-scan: https://polish.musicsources.pl/pl/lokalizacje/galeria/rekopisy/4465 @EN{Scan on Polish Music Sources Website} @PL{Skany w portalu Dziedzictwo Muzyki Polskiej w otwartym dostępie}
!!!ONB-nifc: UWAGA: Hej bracia czy śpicie na podstawie głosów (Canto, Violino Primo, Violino Secundo)
!!!OMD: Aria allegretto
!!!AIN: 1 soprn 2 violn
!!!key: G
**kern	**dynam	**kern	**dynam	**kern	**text
*part3	*part3	*part2	*part2	*part1	*part1
*staff3	*	*staff2	*	*staff1	*staff1
*I"Violino Secundo	*	*I"Violino Primo	*	*I"Canto	*
*Ivioln	*	*Ivioln	*	*Isoprn	*
*ICstr	*	*ICstr	*	*ICvox	*
*IGacmp	*	*IGacmp	*	*IGsolo	*
*clefG2	*	*clefG2	*	*clefC1	*
*k[f#]	*	*k[f#]	*	*k[f#]	*
*G:	*	*G:	*	*G:	*
*M2/4	*	*M2/4	*	*M2/4	*
=1	=1	=1	=1	=1	=1
!LO:TX:a:i:t=Aria allegretto	!	!LO:TX:a:i:t=Aria allegretto	!	!LO:TX:a:i:t=Aria allegretto	!
!	!	!	!	!LO:TX:a:t=12	!
8d/	.	8d/ 8dd	.	2r	.
4d/	.	4d/ 4dd	.	.	.
8d/	.	8d/ 8dd	.	.	.
=2	=2	=2	=2	=2	=2
8c#X/L	.	8cc#X\L	.	2r	.
8d/	.	8dd\	.	.	.
8e/	.	8ee\	.	.	.
8d/J	.	8dd\J	.	.	.
=3	=3	=3	=3	=3	=3
!LO:SIC:v:s=8c#/L	!	!LO:SIC:v:s=8cc#\L	!	!	!
8c/L	.	8cc\L	.	2r	.
8d/	.	8dd\	.	.	.
8A/	.	8a\	.	.	.
8d/J	.	8dd\J	.	.	.
=4	=4	=4	=4	=4	=4
8B/	.	8b/	.	2r	.
4G/	.	4gsSSs</	.	.	.
8G/	.	8g/	.	.	.
=5	=5	=5	=5	=5	=5
2c/ [<2d	.	8f#/L	.	2r	.
.	.	16f#/L	.	.	.
.	.	16e/JJ	.	.	.
.	.	16d/LL	.	.	.
.	.	16e/	.	.	.
.	.	16f#/	.	.	.
.	.	16d/JJ	.	.	.
=6	=6	=6	=6	=6	=6
2B/ 2d_<	.	8g/L	.	2r	.
.	.	16g/L	.	.	.
.	.	16f#/JJ	.	.	.
.	.	16g/LL	.	.	.
.	.	16a/	.	.	.
.	.	16b/	.	.	.
.	.	16g/JJ	.	.	.
=7	=7	=7	=7	=7	=7
2c/ 2d_<	.	8f#/L	.	2r	.
.	.	16f#/L	.	.	.
.	.	16e/JJ	.	.	.
.	.	16d/LL	.	.	.
.	.	16e/	.	.	.
.	.	16f#/	.	.	.
.	.	16d/JJ	.	.	.
=8	=8	=8	=8	=8	=8
2B/ 2d]	.	8g/	.	2r	.
.	.	4g/	.	.	.
.	.	8ggsSSs\	.	.	.
!	!	!LO:LB:g=original	!	!	!
=9	=9	=9	=9	=9	=9
*tremolo	*	*	*	*	*
8d/L 8cc	.	8ff#\L	.	2r	.
8d/ 8cc	.	16ff#\L	.	.	.
.	.	16ee\JJ	.	.	.
8d/ 8cc	.	16dd\LL	.	.	.
.	.	16ee\	.	.	.
8d/J 8cc	.	16ff#\	.	.	.
.	.	16dd\JJ	.	.	.
*	*	*	*	*	*
=10	=10	=10	=10	=10	=10
*	*	*	*	*	*
8d/L 8b	.	8gg\L	.	2r	.
8d/ 8b	.	16gg\L	.	.	.
.	.	16ff#\JJ	.	.	.
8d/ 8b	.	16gg\LL	.	.	.
.	.	16aa\	.	.	.
8d/J 8b	.	16bb\	.	.	.
.	.	16gg\JJ	.	.	.
*	*	*	*	*	*
!LO:LB:g=original	!	!	!	!	!
=11	=11	=11	=11	=11	=11
*	*	*	*	*	*
8d/L 8cc	.	8ff#\L	.	2r	.
8d/ 8cc	.	16ff#\L	.	.	.
.	.	16ee\JJ	.	.	.
8d/ 8cc	.	16dd\LL	.	.	.
.	.	16ee\	.	.	.
8d/J 8cc	.	16ff#\	.	.	.
.	.	16dd\JJ	.	.	.
*	*	*	*	*	*
=12	=12	=12	=12	=12	=12
*	*	*	*	*	*
8d/L 8b	.	8ggsSSs\	.	2r	.
8d/ 8b	.	4g/	.	.	.
8d/ 8b	.	.	.	.	.
8d/J 8b	.	8gg\	.	.	.
*	*	*	*	*	*
=13	=13	=13	=13	=13	=13
*	*	*2\right	*	*	*
*	*	*tremolo	*	*	*
!	!	!	!	!LO:TX:a:i:t=Solo	!
8G/L	p	8b\L	p	8dd\	Ey
8d/	.	8dd\	.	4dd\	Bra-
8G/	.	8b\	.	.	.
8d/J	.	8dd\J	.	8dd\	-cia
*Xtremolo	*	*Xtremolo	*	*	*
=14	=14	=14	=14	=14	=14
8A#X/L	.	8cc#X\L	.	8cc#X\L	czy
8B/	.	8dd\	.	8dd\J	wy
8c/	.	8ee\	.	8ee\L	spi-
8B/J	.	8dd\J	.	8dd\J	-cie
=15	=15	=15	=15	=15	=15
!	!	!LO:SIC:v:s=8cc#\L	!	!	!
8A#X/L	.	8cc\L	.	8cc#X\	czy
8B/	.	8dd\	.	8dd\	wszy-
8B/ 8d	.	8a\	.	8a\	-sci
8B/J 8d	.	8dd\J	.	8dd\	ba-
=16	=16	=16	=16	=16	=16
*tremolo	*	*	*	*	*
8B/L 8d	.	8b\	.	8b\	-czy-
8B/ 8d	.	4gg\	.	4g\	-cie
8B/ 8d	.	.	.	.	.
8B/J 8d	.	8g/	.	8r	.
*	*	*	*	*	*
!	!	!	!	!LO:LB:g=original	!
=17	=17	=17	=17	=17	=17
*	*	*tremolo	*	*	*
8A/L	.	8f#/L	.	8f#/L	dzi-
8c/	.	8a/	.	8f#/J	-wy
8A/	.	8f#/	.	8d/	nie-
8c/J	.	8a/J	.	8f#/	-sły-
*	*	*	*	*	*
=18	=18	=18	=18	=18	=18
*	*	*	*	*	*
8B/L	.	8g/L	.	8g\	-cha-
8d/	.	8b/	.	4b\	.
8B/	.	8g/	.	.	.
8d/J	.	8b/J	.	8g\	-ne
*	*	*	*	*	*
!	!	!LO:LB:g=original	!	!	!
=19	=19	=19	=19	=19	=19
*	*	*	*	*	*
8A/L	.	8f#/L	.	8f#/	dzi-
8c/	.	8a/	.	8f#/	-wy
8A/	.	8f#/	.	8d/	nie-
8c/J	.	8a/J	.	8f#/	-sły-
*	*	*Xtremolo	*	*	*
=20	=20	=20	=20	=20	=20
*	*	*	*	*	*
!	!	!LO:TX:t=P:problem=mixed beam	!	!	!
8B/L 8d	.	(8g/L	.	8g\	-cha-
8B/ 8d	.	8b/	.	4b\	.
8B/ 8d	.	8g/)	.	.	.
8B/J 8d	.	8gg\J	.	8g\	-ne
*Xtremolo	*	*	*	*	*
!LO:LB:g=original	!	!	!	!	!
=21	=21	=21	=21	=21	=21
16d/LL	.	8ff#\L	f	0r	.
16cc/	.	.	.	.	.
16a/	.	16ff#\L	.	.	.
16cc/JJ	.	16ee\JJ	.	.	.
*rep	*	*	*	*	*
16d/LL	.	16dd\LL	.	.	.
16cc/	.	16ee\	.	.	.
16a/	.	16ff#\	.	.	.
16cc/JJ	.	16dd\JJ	.	.	.
*Xrep	*	*	*	*	*
=22	=22	=22	=22	=22	=22
16d/LL	.	8gg\L	.	.	.
16b/	.	.	.	.	.
16g/	.	16gg\L	.	.	.
16b/JJ	.	16ff#\JJ	.	.	.
*rep	*	*	*	*	*
16d/LL	.	16gg\LL	.	.	.
16b/	.	16aa\	.	.	.
16g/	.	16bb\	.	.	.
16b/JJ	.	16gg\JJ	.	.	.
*Xrep	*	*	*	*	*
=23	=23	=23	=23	=23	=23
16d/LL	.	8ff#\L	.	.	.
16cc/	.	.	.	.	.
16a/	.	16ff#\L	.	.	.
16cc/JJ	.	16ee\JJ	.	.	.
*rep	*	*	*	*	*
16d/LL	.	16dd\LL	.	.	.
16cc/	.	16ee\	.	.	.
16a/	.	16ff#\	.	.	.
16cc/JJ	.	16dd\JJ	.	.	.
*Xrep	*	*	*	*	*
=24	=24	=24	=24	=24	=24
16d/LL	.	8gg\	.	.	.
16b/	.	.	.	.	.
16g/	.	4gg\	.	.	.
16b/JJ	.	.	.	.	.
8B/L 8g	.	.	.	.	.
8B/J 8g	.	8g/	.	.	.
!	!	!	!	!LO:LB:g=original	!
=25	=25	=25	=25	=25	=25
8r	.	8r	.	8dd\	Oy
8B/L 8d	.	8g/L 8b	.	4dd\	trwo-
8B/ 8d	.	8g/ 8b	.	.	.
8B/J 8d	.	8g/J 8b	.	8dd\	-ga
=26	=26	=26	=26	=26	=26
8r	.	8r	.	8cc#X\L	dla
*rep	*	*	*	*	*
8B/L 8d	.	8g/L 8b	.	8dd\J	.
8B/ 8d	.	8g/ 8b	.	8ee\L	Bo-
8B/J 8d	.	8g/J 8b	.	8dd\J	-ga
*Xrep	*	*	*	*	*
=27	=27	=27	=27	=27	=27
!	!	!	!	!LO:SIC:v:s=8cc#\L	!
8r	.	8r	.	8cc\L	co
*rep	*	*	*	*	*
8B/L 8d	.	8g/L 8b	.	8dd\J	.
8B/ 8d	.	8g/ 8b	.	8a\L	się
8B/J 8d	.	8g/J 8b	.	8dd\J	.
*Xrep	*	*	*	*	*
!LO:LB:g=original	!	!LO:LB:g=original	!	!	!
=28	=28	=28	=28	=28	=28
8r	.	8r	.	8b\	dzie-
*rep	*	*	*	*	*
8B/L 8d	.	8g/L 8b	.	4g\	-je
8B/ 8d	.	8g/ 8b	.	.	.
8B/J 8d	.	8g/J 8b	.	8r	.
*Xrep	*	*	*	*	*
=29	=29	=29	=29	=29	=29
8r	.	8r	.	8f#/L	jas-
8f#/L 8a	.	8d/L 8cc	.	8f#/J	-nosc
!	!	!	!	!LO:LB:g=original	!
=-	=-	=-	=-	=-	=-
8f#/ 8a	.	8d/ 8cc	.	8d/	w_no-
8f#/J 8a	.	8d/J 8cc	.	8f#/	-cy
=30	=30	=30	=30	=30	=30
8r	.	8r	.	8g\	choć
8B/L 8g	.	8d/L 8b	.	8a\	nie
8B/ 8g	.	8d/ 8b	.	8b\	dnie-
8B/J 8g	.	8d/J 8b	.	8g\	-ie
=31	=31	=31	=31	=31	=31
8r	.	8r	.	8f#/L	ias-
*tremolo	*	*	*	*	*
8f#/L 8a	.	8d/L 8cc	.	8f#/J	-nosc
8f#/ 8a	.	8d/ 8cc	.	8d/	w_no-
.	.	.	.	.	.
8f#/J 8a	.	8d/J 8cc	.	8f#/	-cy
*	*	*	*	*	*
=32	=32	=32	=32	=32	=32
8r	.	8r	.	8g\	choć
*	*	*	*	*	*
8B/L 8g	.	8d/L 8b	.	8g\	nie
8B/ 8g	.	8d/J 8b	.	8g\	dnie-
.	.	.	.	.	.
8B/J 8g	.	8b\ 8gg	.	8g\	-je
*	*	*	*	*	*
!	!	!	!	!LO:LB:g=original	!
=33	=33	=33	=33	=33	=33
!LO:N:vis=2.	!LO:DY:b:rj	!LO:TX:a:t=3	!LO:DY:b	!	!
16d/LL 16cc	f	16ff#\LL	f	0r	.
16d/ 16cc	.	16gg\	.	.	.
16d/ 16cc	.s	16aa\	.	.	.
16d/ 16cc	.	16bb\JJ	.	.	.
.	.	.	.	.	.
16d/ 16cc	.	16ccc\LL	.	.	.
16d/ 16cc	.	16bb\	.	.	.
16d/ 16cc	.	16ccc\	.	.	.
.	.	.	.	.	.
16d/JJ 16cc	.	16aa\JJ	.	.	.
*Xtremolo	*	*	*	*	*
=34	=34	=34	=34	=34	=34
16gg\LL	.	16bb\LL	.	.	.
16b\	.	16dd\	.	.	.
16bb\	.	16ddd\	.	.	.
16b\JJ	.	16dd\JJ	.	.	.
*rep	*	*rep	*	*	*
16gg\LL	.	16bb\LL	.	.	.
16b\	.	16dd\	.	.	.
16bb\	.	16ddd\	.	.	.
16b\JJ	.	16dd\JJ	.	.	.
*Xrep	*	*Xrep	*	*	*
=35	=35	=35	=35	=35	=35
*tremolo	*	*	*	*	*
!	!	!LO:TX:a:t=3	!	!	!
16d/LL 16cc	.	16ff#\LL	.	.	.
16d/ 16cc	.	16gg\	.	.	.
16d/ 16cc	.	16aa\	.	.	.
16d/ 16cc	.	16bb\JJ	.	.	.
16d/ 16cc	.	16ccc\LL	.	.	.
16d/ 16cc	.	16bb\	.	.	.
16d/ 16cc	.	16ccc\	.	.	.
16d/JJ 16cc	.	16aa\JJ	.	.	.
*	*	*	*	*	*
!	!	!LO:LB:g=original	!	!	!
=36	=36	=36	=36	=36	=36
*	*	*	*	*	*
16d/LL 16b	.	16gg\LL	.	.	.
16d/ 16b	.	16dd\	.	.	.
16d/ 16b	.	16bb\	.	.	.
16d/ 16b	.	16dd\JJ	.	.	.
*	*	*rep	*	*	*
16d/ 16b	.	16gg\LL	.	.	.
16d/ 16b	.	16dd\	.	.	.
16d/ 16b	.	16bb\	.	.	.
16d/JJ 16b	.	16dd\JJ	.	.	.
*	*	*Xrep	*	*	*
!LO:LB:g=original	!	!	!	!	!
=37	=37	=37	=37	=37	=37
*	*	*	*	*	*
16d/LL 16cc	.	16ff#\LL	.	0r	.
16d/ 16cc	.	16gg\	.	.	.
16d/ 16cc	.	16aa\	.	.	.
16d/ 16cc	.	16bb\JJ	.	.	.
16d/ 16cc	.	16ccc\LL	.	.	.
16d/ 16cc	.	16bb\	.	.	.
16d/ 16cc	.	16ccc\	.	.	.
16d/JJ 16cc	.	16aa\JJ	.	.	.
*	*	*	*	*	*
=38	=38	=38	=38	=38	=38
*	*	*	*	*	*
16d/LL 16b	.	16gg\LL	.	.	.
16d/ 16b	.	16aa\	.	.	.
16d/ 16b	.	16bb\	.	.	.
16d/ 16b	.	16ccc\JJ	.	.	.
16d/ 16b	.	16ddd\LL	.	.	.
16d/ 16b	.	16bb\	.	.	.
16d/ 16b	.	16gg\	.	.	.
16d/JJ 16b	.	16dd\JJ	.	.	.
*Xtremolo	*	*	*	*	*
=39	=39	=39	=39	=39	=39
16d/LL	.	16ff#\LL	.	.	.
16cc/	.	16gg\	.	.	.
16a/	.	16aa\	.	.	.
16cc/JJ	.	16bb\JJ	.	.	.
*rep	*	*	*	*	*
16d/LL	.	16ccc\LL	f	.	.
16cc/	.	16bb\	.	.	.
16a/	.	16ccc\	.	.	.
16cc/JJ	.	16aa\JJ	.	.	.
*Xrep	*	*	*	*	*
=40	=40	=40	=40	=40	=40
8d/L 8b	.	8gg\	.	.	.
8d/J 8b	.	8r	.	.	.
4r	.	8g/L	.	.	.
.	.	16a/L	.	.	.
.	.	16b/JJ	.	.	.
=41	=41	=41	=41	=41	=41
*tremolo	*	*	*	*	*
8c/L 8e	p	8cc/L	.	8cc\	Y
8c/ 8e	.	(16cc/L	.	8cc\	my
.	.	16b/JJ)	.	.	.
8c/ 8e	.	8cc/L	.	8cc\	terz
8c/J 8e	.	(16cc/L	.	8cc\	pa-
.	.	16b/JJ)	.	.	.
*	*	*	*	*	*
=42	=42	=42	=42	=42	=42
*	*	*	*	*	*
8c/L 8e	.	16cc\LL	.	(8cc\	-trze-
.	.	16dd\	.	.	.
8c/ 8e	.	16ee\	.	4g\)	.
.	.	16cc\JJ	.	.	.
8c/ 8e	.	8g/L	.	.	.
8c/J 8e	.	8g/J	.	8g\	-my
*	*	*	*	*	*
!	!	!LO:LB:g=original	!	!	!
=43	=43	=43	=43	=43	=43
*	*	*	*	*	*
8G/L 8fn	.	8dd\L	.	8dd\	a-
8G/ 8f	.	16dd\L	.	8dd\	-le
.	.	16cc#X\JJ	.	.	.
8G/ 8f	.	8dd\L	.	8dd\	sie
8G/J 8f	.	16dd\L	.	8dd\	bo-
.	.	16cc#\JJ	.	.	.
*	*	*	*	*	*
=44	=44	=44	=44	=44	=44
*	*	*	*	*	*
!LO:SIC:v:n=1:s=16fn	!	!	!	!	!
16G/LL 16f#	.	16dd\LL	.	(8dd\L	-ie-
16G/ 16f#	.	16ee\	.	.	.
16G/ 16f#	.	16ff#\	.	8g\J)	.
16G/ 16f#	.	16dd\JJ	.	.	.
16G/ 16f#	.	8g/L	.	4g\	-my
16G/ 16f#	.	.	.	.	.
16G/ 16f#	.	8g/J	.	.	.
16G/JJ 16f#	.	.	.	.	.
*Xtremolo	*	*	*	*	*
!	!	!	!	!LO:LB:g=original	!
=45	=45	=45	=45	=45	=45
8r	.	8r	.	4ee\	pa-
8e/	.	8ee\	.	.	.
8r	.	8r	.	4cc\	-trząc
8c/	.	8cc\	.	.	.
=46	=46	=46	=46	=46	=46
8r	.	8r	.	4.a\	na
8A/	.	8cc\	.	.	.
8r	.	8r	.	.	.
8d/	.	8dd\	.	8dd\	te
!LO:LB:g=original	!	!	!	!	!
=47	=47	=47	=47	=47	=47
8r	.	8r	.	8g\L	dzi-
!	!	!LO:TX:t=P:problem=mixed beam	!	!	!
8G/L	.	8g/L	.	8g\J	-wy
8g/	.	8gg\	.	4r	.
8cc/J	.	8ccc\J	.	.	.
=48	=48	=48	=48	=48	=48
*tremolo	*	*tremolo	*	*	*
!	!LO:DY:b:rj	!	!	!	!
16ee\LL	f	16eee\LL	.	1r	.
16ee\	.	16eee\	.	.	.
16ee\	.	16eee\	.	.	.
16ee\JJ	.	16eee\JJ	.	.	.
16cc\LL	.	16ccc\LL	.	.	.
16cc\	.	16ccc\	.	.	.
16cc\	.	16ccc\	.	.	.
16cc\JJ	.	16ccc\JJ	.	.	.
*	*	*	*	*	*
=49	=49	=49	=49	=49	=49
*	*	*	*	*	*
16a\LL	.	16aa\LL	.	.	.
16a\	.	16aa\	.	.	.
16a\	.	16aa\	.	.	.
16a\JJ	.	16aa\JJ	.	.	.
16dd\LL	.	16ddd\LL	.	.	.
16dd\	.	16ddd\	.	.	.
16dd\	.	16ddd\	.	.	.
16dd\JJ	.	16ddd\JJ	.	.	.
*	*	*	*	*	*
=50	=50	=50	=50	=50	=50
*	*	*	*	*	*
16g/LL	.	16gg\LL	.	4r	.
16g/	.	16gg\	.	.	.
16g/	.	16gg\	.	.	.
16g/JJ	.	16gg\JJ	.	.	.
*Xtremolo	*	*Xtremolo	*	*	*
8G/	.	8g/	.	8r	.
8r	.	8r	.	8g\	Trwo-
=51	=51	=51	=51	=51	=51
8r	.	8r	.	4cc\	-ga
32G/LLL 32g	.	32d/LLL 32cc	.	.	.
32G/ 32g	.	32d/ 32cc	.	.	.
32G/ 32g	.	32d/ 32cc	.	.	.
32G/JJJ 32g	.	32d/JJJ 32cc	.	.	.
8G/ 8g	.	8d/ 8cc	.	8r	.
8r	.	8r	.	8g\	trwo-
!	!	!LO:LB:g=original	!	!	!
=52	=52	=52	=52	=52	=52
8r	.	8r	.	4dd\	-ga
*	*	*tremolo	*	*	*
32G/LLL 32g	.	32d/LLL 32dd	.	.	.
32G/ 32g	.	32d/ 32dd	.	.	.
32G/ 32g	.	32d/ 32dd	.	.	.
32G/JJJ 32g	.	32d/JJJ 32dd	.	.	.
8G/ 8g	.	8d/ 8dd	.	8r	.
*	*	*Xtremolo	*	*	*
8r	.	8r	.	8g\	dla
!LO:LB:g=original	!	!	!	!LO:LB:g=original	!
=53	=53	=53	=53	=53	=53
8r	.	8r	.	4ee\	Bo-
16e/LL	.	16ee\LL	.	.	.
16e/JJ	.	16ee\JJ	.	.	.
8r	.	8r	.	4cc\	-ga
16c/LL	.	16cc\LL	.	.	.
16c/JJ	.	16cc\JJ	.	.	.
=54	=54	=54	=54	=54	=54
8r	.	8r	.	4a\	co
16A/LL	.	16a\LL	.	.	.
16A/JJ	.	16a\JJ	.	.	.
8r	.	8r	.	4dd\	się
16d/LL	.	16dd\LL	.	.	.
16d/JJ	.	16dd\JJ	.	.	.
=55	=55	=55	=55	=55	=55
16r	.	16r	.	8g\L	dzie-
16g/LL	.	16gg\LL	.	.	.
16f#/	.	16ff#\	.	8g\J	-ie
16e/JJ	.	16ee\JJ	.	.	.
16d/LL	.	16dd\LL	.	4r	.
16c/	.	16cc\	.	.	.
16B/	.	16b\	.	.	.
16A/JJ	.	16a\JJ	.	.	.
=56	=56	=56	=56	=56	=56
4G/	.	4g/	.	8r	.
.	.	.	.	8g\	od
4r	.	4r	.	8g\	stra-
.	.	.	.	8g\	-chu
=57	=57	=57	=57	=57	=57
*^	*	*	*	*	*
8e/L	2G/	.	8cc\L	p	4cc\	ser-
8e/	.	.	(16b\L	.	.	.
.	.	.	16cc\JJ)	.	.	.
8f#/	.	.	8dd\L	.	8dd\L	-ce
8f#/J	.	.	(16cc\L	.	8dd\J	tru-
.	.	.	16dd\JJ)	.	.	.
*v	*v	*	*	*	*	*
!	!	!	!	!LO:LB:g=original	!
=58	=58	=58	=58	=58	=58
*tremolo	*	*	*	*	*
!	!LO:DY:b:rj	!	!	!	!
8G/L 8e	f	8ee\L	.	8ee\L	-chle-
8G/ 8e	.	8dd\J	.	8cc\J	-ie
8G/ 8e	.	16gg\LL	.	4r	.
.	.	16ff#X\	.	.	.
8G/J 8e	.	16gg\	.	.	.
.	.	16ee\JJ	.	.	.
*	*	*	*	*	*
=59	=59	=59	=59	=59	=59
*	*	*	*	*	*
8e/L	.	8cc\L	.	8r	.
8g/	.	8ee\	.	8cc\	o
8e/	.	8cc\	.	8cc\L	ser-
8g/J	.	8ee\J	.	8cc\J	-ce
*Xtremolo	*	*	*	*	*
!LO:PB:g=original	!	!LO:PB:g=original	!	!	!
=60	=60	=60	=60	=60	=60
*tremolo	*	*tremolo	*	*	*
16a/LL	.	16aa\LL	.	4a\	tru-
16a/	.	16aa\	.	.	.
16a/	.	16aa\	.	.	.
16a/JJ	.	16aa\JJ	.	.	.
!	!	!	!	!LO:SIC:v:s=4fn/	!
16fn/LL	.	16ffn\LL	.	4f#/	-chle
16f/	.	16ff\	.	.	.
16f/	.	16ff\	.	.	.
16f/JJ	.	16ff\JJ	.	.	.
*	*	*	*	*	*
=61	=61	=61	=61	=61	=61
*	*	*	*	*	*ij
16d/LL	.	16dd\LL	.	4g\	tru-
16d/	.	16dd\	.	.	.
16d/	.	16dd\	.	.	.
16d/JJ	.	16dd\JJ	.	.	.
16g/LL	.	16gg\LL	.	4g\	-che-
16g/	.	16gg\	.	.	.
16g/	.	16gg\	.	.	.
16g/JJ	.	16gg\JJ	.	.	.
*Xtremolo	*	*Xtremolo	*	*	*Xij
=62	=62	=62	=62	=62	=62
8c/L	.	8cc\L	f	4c/	-ie
8d/	.	8dd\	.	.	.
8e/	.	8ee\	.	4r	.
!LO:SIC:v:s=8fn/J	!	!LO:SIC:v:s=8ffn\J	!	!	!
8f#/J	.	8ff#\J	.	.	.
=63	=63	=63	=63	=63	=63
8g/L	.	8gg\L	.	0r	.
16g/L	.	16gg\L	.	.	.
16f#X/JJ	.	16ff#X\JJ	.	.	.
8g/L	.	8gg\L	.	.	.
16g/L	.	16gg\L	.	.	.
16f#X/JJ	.	16ff#\JJ	.	.	.
=64	=64	=64	=64	=64	=64
8g/L	.	8gg\L	.	.	.
16g/L	.	16gg\L	.	.	.
16f#/JJ	.	16ff#X\JJ	.	.	.
8g/L	.	8gg\L	.	.	.
8cc/J	.	8ccc\J	.	.	.
=65	=65	=65	=65	=65	=65
4g/	.	4gg\	.	.	.
4e/	.	4ee\	.	.	.
=66	=66	=66	=66	=66	=66
8c/L	.	8cc\L	.	.	.
8d/	.	8dd\	.	.	.
8e/	.	8ee\	.	.	.
8f#X/J	.	8ff#\J	.	.	.
=67	=67	=67	=67	=67	=67
8g/L	.	8gg\L	.	0r	.
16g/L	.	16gg\L	.	.	.
16f#X/JJ	.	16ff#X\JJ	.	.	.
8g/L	.	8gg\L	.	.	.
16g/L	.	16gg\L	.	.	.
16f#/JJ	.	16ff#\JJ	.	.	.
!LO:LB:g=original	!	!	!	!	!
=68	=68	=68	=68	=68	=68
8g/L	.	8gg\L	.	.	.
(16g/L	.	16gg\L	.	.	.
16f#/JJ)	.	16ee\JJ	.	.	.
8fn/L	.	8ffn\L	.	.	.
8d/J	.	8dd\J	.	.	.
=69	=69	=69	=69	=69	=69
4c/	.	4cc\	.	.	.
8cc\	.	8ccc\	.	.	.
8r	.	8r	.	.	.
=70	=70	=70	=70	=70	=70
8d/	.	8d/ 8dd	.	.	.
4d/	.	4d/ 4dd	.	.	.
8d/	.	8d/ 8dd	.	.	.
!	!	!LO:LB:g=original	!	!	!
=71	=71	=71	=71	=71	=71
8c#X/L	.	8cc#X\L	.	1r	.
8d/	.	8dd\	.	.	.
8e/	.	8ee\	.	.	.
8d/J	.	8ff#\J	.	.	.
=72	=72	=72	=72	=72	=72
!LO:SIC:v:s=8c#/L	!	!LO:SIC:v:s=8cc#\L	!	!	!
8c/L	.	8cc\L	.	.	.
8d/	.	8dd\	.	.	.
8A/	.	8a\	.	.	.
8d/J	.	8dd\J	.	.	.
=73	=73	=73	=73	=73	=73
8B/	.	8b/	.	2r	.
4G/	.	4gsSSs</	.	.	.
8G/	.	8g/	.	.	.
!	!	!	!	!LO:LB:g=original	!
=74	=74	=74	=74	=74	=74
*tremolo	*	*tremolo	*	*	*
8G/L	.	8B/L	.	8dd\	Oy
8B/	.	8d/	.	4dd\	nie-
8G/	.	8B/	.	.	.
8B/J	.	8d/J	.	8dd\	-bo
*	*	*	*	*	*
=75	=75	=75	=75	=75	=75
*rep	*	*	*	*	*
8G/L	.	8B/L	.	8cc#X\L	o-
8B/	.	8d/	.	8dd\	-two-
8G/	.	8B/	.	8ee\	-rzo-
8B/J	.	8d/J	.	8dd\J	-ne
*Xrep	*	*	*	*	*
*Xtremolo	*	*Xtremolo	*	*	*
=76	=76	=76	=76	=76	=76
8G/L	.	8B/L	.	8cc#X\L	woy-
8B/	.	8d/	.	8dd\	-ska
8A/	.	8A/	.	8a\	nie-
8G/J	.	8d/J	.	8dd\J	-zli-
!LO:LB:g=original	!	!	!	!	!
=77	=77	=77	=77	=77	=77
*tremolo	*	*tremolo	*	*	*
8G/L	.	8B/L	.	8b\	-czo-
8B/	.	8d/	.	4g\	-ne
8G/	.	8B/	.	.	.
8B/J	.	8d/J	.	8r	.
*	*	*	*	*	*
=78	=78	=78	=78	=78	=78
*	*	*	*	*	*
8d/L	.	8cc/L	.	8a/L	a-
8f#/	.	8d/	.	8a/J	-niel-
!	!	!	!	!LO:LB:g=original	!
=-	=-	=-	=-	=-	=-
8d/	.	8cc/	.	8d/	.
8f#/J	.	8d/J	.	8f#/	-skie
*	*	*	*	*	*
=79	=79	=79	=79	=79	=79
*	*	*	*	*	*
8g/L	.	8b/L	.	8g\	wi-
8B/	.	8d/	.	4b\	-dzie-
8g/	.	8b/	.	.	.
8B/J	.	8d/J	.	8g\	-my
*	*	*	*	*	*
=80	=80	=80	=80	=80	=80
*	*	*	*	*	*
8d/L	.	8a/L	.	8f#/L	a-
8f#/	.	8cc/	.	8f#/J	-niel-
8d/	.	8a/	.	8d/	-skie
8f#/J	.	8cc/J	.	8f#/	wi-
*	*	*Xtremolo	*	*	*
=81	=81	=81	=81	=81	=81
*	*	*	*	*	*
8g/L	.	8b\L	.	8g\	-dzie-
8b/	.	8dd\	.	4g\	-my
8g/	.	8b\	.	.	.
8b/J	.	8gg\J	.	8r	.
*Xtremolo	*	*	*	*	*
=82	=82	=82	=82	=82	=82
16A/LL	.	8ff#\L	.	0r	.
16d/	.	.	.	.	.
16c/	.	16ff#\L	.	.	.
16d/JJ	.	16ee\JJ	.	.	.
*rep	*	*	*	*	*
16A/LL	.	16dd\LL	.	.	.
16d/	.	16ee\	.	.	.
16c/	.	16ff#\	.	.	.
16d/JJ	.	16dd\JJ	.	.	.
*Xrep	*	*	*	*	*
=83	=83	=83	=83	=83	=83
16G/LL	.	8gg\L	.	.	.
16d/	.	.	.	.	.
16B/	.	16gg\L	.	.	.
16d/JJ	.	16ff#\JJ	.	.	.
*rep	*	*	*	*	*
16G/LL	.	16gg\LL	.	.	.
16d/	.	16aa\	.	.	.
16B/	.	16bb\	.	.	.
16d/JJ	.	16gg\JJ	.	.	.
*Xrep	*	*	*	*	*
!	!	!LO:LB:g=original	!	!	!
=84	=84	=84	=84	=84	=84
16A/LL	.	8ff#\L	.	.	.
16d/	.	.	.	.	.
16c/	.	16ff#\L	.	.	.
16d/JJ	.	16ee\JJ	.	.	.
*rep	*	*	*	*	*
16A/LL	.	16dd\LL	.	.	.
16d/	.	16ee\	.	.	.
16c/	.	16ff#\	.	.	.
16d/JJ	.	16dd\JJ	.	.	.
*Xrep	*	*	*	*	*
=85	=85	=85	=85	=85	=85
16G/LL	.	8gg\	.	.	.
16d/	.	.	.	.	.
16B/	.	4gg\	.	.	.
16d/JJ	.	.	.	.	.
*rep	*	*	*	*	*
16G/LL	.	.	.	.	.
16d/	.	.	.	.	.
16B/	.	8g/	.	.	.
16d/JJ	.	.	.	.	.
*Xrep	*	*	*	*	*
!	!	!	!	!LO:LB:g=original	!
=86	=86	=86	=86	=86	=86
*tremolo	*	*tremolo	*	*	*
8g/L	.	8b\L	.	8dd\	Ey
8b/	.	8dd\	.	4dd\	trwo-
8g/	.	8b\	.	.	.
8b/J	.	8dd\J	.	8dd\	-ga
*Xtremolo	*	*	*	*	*
!LO:LB:g=original	!	!	!	!	!
=87	=87	=87	=87	=87	=87
*tremolo	*	*	*	*	*
*rep	*	*rep	*	*	*
8g/L	.	8b\L	.	8cc#X\L	dla
8b/	.	8dd\	.	8dd\J	.
8g/	.	8b\	.	8ee\L	Bo-
8b/J	.	8dd\J	.	8dd\J	-ga
*Xtremolo	*	*Xrep	*	*	*
*Xrep	*	*Xtremolo	*	*	*
=88	=88	=88	=88	=88	=88
8g/L	.	8b\L	.	8cc#X\L	co
8b/	.	8dd\	.	8dd\J	.
8f#/	.	8b\	.	8a\L	sie
8d/J	.	8dd\J	.	8dd\J	.
=89	=89	=89	=89	=89	=89
*tremolo	*	*tremolo	*	*	*
8b/L	.	8b/L	.	8b\	dzie-
8B/	.	8g/	.	4g\	-ie
8b/	.	8b/	.	.	.
8B/J	.	8g/J	.	8r	.
*Xtremolo	*	*Xtremolo	*	*	*
=90	=90	=90	=90	=90	=90
2c/ 2d	.	8f#/L	.	8f#/	od
.	.	16f#/L	.	4a\	stra-
.	.	16e/JJ	.	.	.
.	.	16d/LL	.	.	.
.	.	16e/	.	.	.
.	.	16f#/	.	8d/	-chu
.	.	16d/JJ	.	.	.
!	!	!	!	!LO:LB:g=original	!
=91	=91	=91	=91	=91	=91
2B/ 2d	.	8g/L	.	8g\L	ser-
.	.	16g/L	.	8a\J	.
.	.	16f#/JJ	.	.	.
.	.	16g/LL	.	8b\L	-ce
.	.	16a/	.	.	.
.	.	16b/	.	8dd\J	.
.	.	16g/JJ	.	.	.
=92	=92	=92	=92	=92	=92
!	!	!LO:TX:t=P:problem=mixed beam	!	!	!
2A/ 2d	.	8f#/L	.	8f#/	ser-
.	.	16ff#\L	.	4a\	-ce
.	.	16ee\JJ	.	.	.
.	.	16dd\LL	.	.	.
.	.	16ee\	.	.	.
.	.	16ff#\	.	8d/	tru-
.	.	16ee\JJ	.	.	.
=93	=93	=93	=93	=93	=93
2B/ 2d	.	8gg\	.	8a\L	-chle-
.	.	4b\	.	8g\J	.
.	.	.	.	8g\	-ie
.	.	8gg\	.	8r	.
=94	=94	=94	=94	=94	=94
*tremolo	*	*	*	*	*
16d/LL 16cc	.	8ff#\L	.	0r	.
16d/ 16cc	.	.	.	.	.
16d/ 16cc	.	16ff#\L	.	.	.
16d/ 16cc	.	16ee\JJ	.	.	.
16d/ 16cc	.	16dd\LL	.	.	.
16d/ 16cc	.	16ee\	.	.	.
16d/ 16cc	.	16ff#\	.	.	.
16d/JJ 16cc	.	16dd\JJ	.	.	.
*	*	*	*	*	*
!	!	!LO:LB:g=original	!	!	!
=95	=95	=95	=95	=95	=95
*	*	*	*	*	*
16d/LL 16b	.	8gg\L	.	.	.
16d/ 16b	.	.	.	.	.
16d/ 16b	.	16gg\L	.	.	.
16d/ 16b	.	16ff#\JJ	.	.	.
16d/ 16b	.	16gg\LL	.	.	.
16d/ 16b	.	16aa\	.	.	.
16d/ 16b	.	16bb\	.	.	.
16d/JJ 16b	.	16gg\JJ	.	.	.
*	*	*	*	*	*
=96	=96	=96	=96	=96	=96
*	*	*	*	*	*
16d/LL 16cc	.	8ff#\L	.	.	.
16d/ 16cc	.	.	.	.	.
16d/ 16cc	.	16ff#\L	.	.	.
16d/ 16cc	.	16ee\JJ	.	.	.
16d/ 16cc	.	16dd\LL	.	.	.
16d/ 16cc	.	16ee\	.	.	.
16d/ 16cc	.	16ff#\	.	.	.
16d/JJ 16cc	.	16dd\JJ	.	.	.
*	*	*	*	*	*
=97	=97	=97	=97	=97	=97
*	*	*	*	*	*
16d/LL 16b	.	8gg\	.	.	.
16d/ 16b	.	.	.	.	.
16d/ 16b	.	4gg\	.	.	.
16d/ 16b	.	.	.	.	.
16d/ 16b	.	.	.	.	.
16d/ 16b	.	.	.	.	.
16d/ 16b	.	16aa\LL	.	.	.
16d/JJ 16b	.	16bb\JJ	.	.	.
*Xtremolo	*	*	*	*	*
=98	=98	=98	=98	=98	=98
2c/ 2d	.	8dd\L	.	0r	.
.	.	(16ee\L	.	.	.
.	.	16ff#\JJ)	.	.	.
.	.	8dd\L	.	.	.
.	.	(16ee\L	.	.	.
.	.	16ff#\JJ)	.	.	.
=99	=99	=99	=99	=99	=99
2B/ 2d	.	8gg\L	.	.	.
.	.	16aa\L	.	.	.
.	.	16bb\JJ	.	.	.
.	.	8gg\L	.	.	.
.	.	16aa\L	.	.	.
.	.	16bb\JJ	.	.	.
=100	=100	=100	=100	=100	=100
2B/ 2d	.	8gg\L	.	.	.
.	.	8bb\J	.	.	.
.	.	8ddd\L	.	.	.
.	.	8bb\J	.	.	.
=101	=101	=101	=101	=101	=101
4B/ 4d	.	8gg\L	.	.	.
.	.	16aa\L	.	.	.
.	.	16bb\JJ	.	.	.
4c/ 4d	.	8dd\L	.	.	.
.	.	16ee\L	.	.	.
.	.	16ff#\JJ	.	.	.
!LO:LB:g=original	!	!	!	!	!
=102	=102	=102	=102	=102	=102
*tremolo	*	*	*	*	*
!	!	!LO:TX:t=P:problem=mixed beam	!	!	!
8G/L 8d	.	8gg\L	.	8r	.
8G/ 8d	.	8d/ 8b	.	8dd\	Hey
8G/ 8d	.	8d/ 8b	.	4dd\	pa-
8G/J 8d	.	8d/J 8b	.	.	.
*	*	*	*	*	*
=103	=103	=103	=103	=103	=103
*rep	*	*tremolo	*	*	*
8G/L 8d	.	8g/L 8b	.	8cc#X\L	-ste-
8G/ 8d	.	8g/ 8b	.	8dd\J	-rze
=-	=-	=-	=-	=-	=-
8G/ 8d	.	8g/ 8b	.	8ee\L	mi-
8G/J 8d	.	8g/J 8b	.	8dd\J	-li
*Xrep	*	*	*	*	*
!	!	!LO:LB:g=original	!	!	!
=104	=104	=104	=104	=104	=104
*rep	*	*rep	*	*	*
!	!	!	!	!LO:SIC:v:s=8cc#\	!
8G/L 8d	.	8g/L 8b	.	8cc\	dzi-
8G/ 8d	.	8g/ 8b	.	8dd\	-siay
8G/ 8d	.	8g/ 8b	.	8a\	o
8G/J 8d	.	8g/J 8b	.	8dd\	tey
*Xrep	*	*Xrep	*	*	*
=105	=105	=105	=105	=105	=105
*rep	*	*rep	*	*	*
8G/L 8d	.	8g/L 8b	.	8b\	chwi-
8G/ 8d	.	8g/ 8b	.	4g\	-li
8G/ 8d	.	8g/ 8b	.	.	.
8G/J 8d	.	8g/J 8b	.	8r	.
*Xrep	*	*Xrep	*	*	*
=106	=106	=106	=106	=106	=106
*	*	*rep	*	*	*
8A/L 8d	.	8g/L 8b	.	8f#/	Chri-
8A/ 8d	.	8g/ 8b	.	8f#/	-stus
8A/ 8d	.	8g/ 8b	.	8d/	sie
8A/J 8d	.	8g/J 8b	.	8f#/	na
*	*	*Xrep	*	*	*
=107	=107	=107	=107	=107	=107
*	*	*rep	*	*	*
8B/L 8d	.	8g/L 8b	.	8g\	ro-
8B/ 8d	.	8g/ 8b	.	4b\	-dził
8B/ 8d	.	8g/ 8b	.	.	.
8B/J 8d	.	8g/J 8b	.	8r	.
*	*	*Xrep	*	*	*
!	!	!	!	!LO:LB:g=original	!
=108	=108	=108	=108	=108	=108
*	*	*rep	*	*	*
8A/L 8d	.	8g/L 8b	.	8f#/	Chri-
8A/ 8d	.	8g/ 8b	.	8f#/	-stus
8A/ 8d	.	8g/ 8b	.	8d/	sie
8A/J 8d	.	8g/J 8b	.	8f#/	na-
*	*	*Xrep	*	*	*
*Xtremolo	*	*Xtremolo	*	*	*
=109	=109	=109	=109	=109	=109
!LO:TX:t=P:problem=brakujący takt	!	!LO:TX:t=P:problem=mixed beam	!	!	!
2ryy	.	8g/L 8b	.	8g\	-ro-
.	.	8g/ 8b	.	4g\	-dził
.	.	8g/ 8b	.	.	.
.	.	8gg\J	.	8r	.
=110	=110	=110	=110	=110	=110
8d/	.	8dd\	.	8dd\	Oy
4d/	.	4dd\	.	4dd\	do
.	.	.	.	.	.
8d/	.	8dd\	.	8dd\	Be-
=111	=111	=111	=111	=111	=111
8c#X/L	.	8cc#X\L	.	8cc#X\L	-thle-
8d/	.	8dd\	.	8dd\	-em
8e/	.	8ee\	.	8ee\	bieſz-
!	!	!	!	!LO:TX:b:t=V&colon;C&colon;	!
8d/J	.	8dd\J	.	8dd\J	-cie
!	!	!	!	!LO:PB:g=original	!
=112	=112	=112	=112	=112	=112
!	!	!LO:SIC:v:s=8cc#\L	!	!	!
8A/L	.	8cc\L	.	8cc#X\L	tam
8d/	.	8dd\	.	8dd\J	dzie-
8A/	.	8a\	.	8a\L	-cie
8d/J	.	8dd\J	.	8dd\J	znay-
=113	=113	=113	=113	=113	=113
8B/	.	8b/	.	8b\	-dzie-
4G/	.	4g/	.	4g\	-cie
8G/	.	8g/	.	8r	.
=114	=114	=114	=114	=114	=114
2A/ 2d	.	8f#/L	.	8f#/	tam
.	.	16f#/L	.	8f#/	dzi-
.	.	16e/JJ	.	.	.
.	.	16d/LL	.	8d/	-cie
.	.	16e/	.	.	.
.	.	16f#/	.	8f#/	znay-
.	.	16d/JJ	.	.	.
!LO:LB:g=original	!	!	!	!	!
=115	=115	=115	=115	=115	=115
2B/ 2d	.	8g/L	.	8g\	-dzie-
.	.	16g/L	.	4b\	-cie
.	.	16f#/JJ	.	.	.
!	!	!LO:LB:g=original	!	!	!
=-	=-	=-	=-	=-	=-
.	.	16g/LL	.	.	.
.	.	16a/	.	.	.
.	.	16b/	.	8r	.
.	.	16g/JJ	.	.	.
!	!	!	!	!LO:LB:g=original	!
=116	=116	=116	=116	=116	=116
2c/ 2d	.	8f#/L	.	8f#/	tam
.	.	16f#/L	.	8f#/	dzie-
.	.	16e/JJ	.	.	.
.	.	16d/LL	.	8d/	-cie
.	.	16e/	.	.	.
.	.	16f#/	.	8f#/	znay-
.	.	16d/JJ	.	.	.
=117	=117	=117	=117	=117	=117
2B/ 2d	.	8g/	.	8g\	-dzie-
.	.	.	.	.	.
.	.	4g/	.	4g\	-cie
.	.	.	.	.	.
.	.	.	.	.	.
.	.	.	.	.	.
.	.	8gg\	.	8r	.
.	.	.	.	.	.
=118	=118	=118	=118	=118	=118
16A/LL	.	16ff#\LL	.	0r	.
16d/	.	16ee\	.	.	.
16c/	.	16dd\	.	.	.
16d/JJ	.	16ee\JJ	.	.	.
*rep	*	*	*	*	*
16A/LL	.	16ff#\LL	.	.	.
16d/	.	16gg\	.	.	.
16c/	.	16aa\	.	.	.
16d/JJ	.	16ff#\JJ	.	.	.
*Xrep	*	*	*	*	*
=119	=119	=119	=119	=119	=119
*	*	*tremolo	*	*	*
16G/LL	.	16gg\LL	.	.	.
16d/	.	16gg\	.	.	.
16B/	.	16gg\	.	.	.
16d/JJ	.	16gg\JJ	.	.	.
*rep	*	*Xtremolo	*	*	*
16G/LL	.	16bb\LL	.	.	.
16d/	.	16bb\	.	.	.
16B/	.	16gg\	.	.	.
16d/JJ	.	16gg\JJ	.	.	.
*Xrep	*	*	*	*	*
=120	=120	=120	=120	=120	=120
16A/LL	.	16ff#\LL	.	.	.
16d/	.	16ff#\	.	.	.
16c/	.	16aa\	.	.	.
16d/JJ	.	16aa\JJ	.	.	.
*rep	*	*	*	*	*
16A/LL	.	16ddd\LL	.	.	.
16d/	.	16ddd\	.	.	.
16c/	.	16ff#\	.	.	.
16d/JJ	.	16ff#\JJ	.	.	.
*Xrep	*	*	*	*	*
=121	=121	=121	=121	=121	=121
16G/LL	.	4.gg\	.	.	.
16d/	.	.	.	.	.
16B/	.	.	.	.	.
16d/JJ	.	.	.	.	.
*rep	*	*	*	*	*
16G/LL	.	.	.	.	.
16d/	.	.	.	.	.
16B/	.	8gg\	.	.	.
16d/JJ	.	.	.	.	.
*Xrep	*	*	*	*	*
=122	=122	=122	=122	=122	=122
2A/ 2d	.	4.ff#\	.	0r	.
.	.	8aa\	.	.	.
!	!	!LO:LB:g=original	!	!	!
=123	=123	=123	=123	=123	=123
2A/ 2d	.	8.dd\L	.	.	.
.	.	16ccc\Jk	.	.	.
.	.	8.ff#\L	.	.	.
.	.	16aa\Jk	.	.	.
=124	=124	=124	=124	=124	=124
2B/ 2d	.	4.gg\	.	.	.
.	.	8bb\	.	.	.
=125	=125	=125	=125	=125	=125
2B/ 2d	.	8.gg\L	.	.	.
.	.	.	.	.	.
.	.	16bb\Jk	.	.	.
.	.	8.gg\L	.	.	.
.	.	.	.	.	.
.	.	16ddd\Jk	.	.	.
=126	=126	=126	=126	=126	=126
*tremolo	*	*	*	*	*
8A/ 8d	.	4.ff#\	.	0r	.
8A/ 8d	.	.	.	.	.
8A/ 8d	.	.	.	.	.
8A/ 8d	.	8aa\	.	.	.
*Xtremolo	*	*	*	*	*
=127	=127	=127	=127	=127	=127
2A/ 2d	.	8.dd\L	.	.	.
.	.	16ddd\Jk	.	.	.
.	.	8.ff#\L	.	.	.
.	.	16aa\Jk	.	.	.
=128	=128	=128	=128	=128	=128
4B/ 4d	.	4gg\	.	.	.
4r	.	4r	.	.	.
=129	=129	=129	=129	=129	=129
4B/ 4g	.	4d/ 4b 4gg	.	.	.
4B/ 4d	.	4G/ 4g 4dd 4bb	.	.	.
=130	=130	=130	=130	=130	=130
4B/ 4d	.	4d/ 4b 4gg	.	2r	.
4r	.	4r	.	.	.
!LO:PB:g=original	!	!LO:PB:g=original	!	!LO:LB:g=original	!
==	==	==	==	==	==
*-	*-	*-	*-	*-	*-
!!!system-decoration: [(s1,s2,s3)]
!!!RDF**kern: < = below
!!!RDF**kern: > = above
!!!ENC: Marta Opryszak
!!!END: 2021-11-24
!!!ENC: Marta Chmielewska
!!!END: 2021-11-30
